X:1
T:Springfield, 11.10.11.10
T:Springfield, 11.10.11.10
T:Edvard Hagerup Grieg (184-1907)
T:Public Domain Courtesy of the Cyber Hymnal™
C:Edvard Hagerup Grieg (184-1907)
Z:Public Domain
Z:Courtesy of the Cyber Hymnal™
%%score ( 1 2 ) ( 3 4 )
L:1/8
Q:1/4=120
M:4/4
K:C
V:1 treble 
V:2 treble 
V:3 bass 
V:4 bass 
V:1
 C2 [CE]2 [DF]2 | [EG]6 [EG]2 | [EA]2 [EA]2 [Ec]3 [EA] | [DA]4 [B,G]4- | [B,G]4 [B,G]4 | %5
 [CE]2 C2 [CE]2 [CG]2 | [CA]2 [EA]2 [^DA]2 [D^G]2 | [EB]6 [FG]2 | [Ec]2 [Ed]2 [Ee]2 [Ed]2 | %9
 [Ec]2 [Ed]2 [Fc]2 [FA]2 | c4 [EG-]4 | [CG]4 [CE]4 | [CG]2 [CA]2 [CB]2 [CA]2 | %13
 [CG]2 [CA]2 [B,G]2 [B,E]2 | [G,C]8- | [G,C]2 |] %16
V:2
 C2 x4 | x8 | x8 | x8 | x8 | x2 C2 x4 | x8 | x8 | x8 | x8 | F2 D2 x4 | x8 | x8 | x8 | x8 | x2 |] %16
V:3
 [C,E,]2 [C,G,]2 [C,G,]2 | [C,C]6 C2 | [A,C]2 [A,C]2 [A,C]3 [A,C] | [F,B,]4 ([F,G,-]4 | %4
 [E,G,]4) [D,G,]4 | [C,G,]2 [C,E,]2 [B,,G,]2 [B,,E,]2 | [A,,A,]2 [G,C]2 [^F,B,]2 [F,A,]2 | %7
 [E,^G,]6 [D,B,]2 | [C,G,]2 [C,G,]2 [C,G,]2 [C,G,]2 | [C,G,]2 [C,G,]2 [C,A,]2 [C,B,]2 | %10
 [C,G,]4 G,4 | [A,,E,]4 [A,,^F,]4 | [G,,E,]2 [G,,E,]2 [G,,E,]2 [G,,E,]2 | %13
 [G,,D,]2 [G,,D,]2 [G,,F,]2 [G,,F,]2 | [C,E,]8- | [C,E,]2 |] %16
V:4
 x6 | x6 C2 | x8 | x8 | x8 | x8 | x8 | x8 | x8 | x8 | x4 C,2 B,,2 | x8 | x8 | x8 | x8 | x2 |] %16

